public/person.svg

<svg width="28" height="28" viewBox="0 0 28 28" fill="none" xmlns="http://www.w3.org/2000/svg">
<path d="M14 14C15.7902 14 17.5071 13.2888 18.773 12.023C20.0388 10.7571 20.75 9.04021 20.75 7.25C20.75 5.45979 20.0388 3.7429 18.773 2.47703C17.5071 1.21116 15.7902 0.5 14 0.5C12.2098 0.5 10.4929 1.21116 9.22703 2.47703C7.96116 3.7429 7.25 5.45979 7.25 7.25C7.25 9.04021 7.96116 10.7571 9.22703 12.023C10.4929 13.2888 12.2098 14 14 14ZM18.5 7.25C18.5 8.44347 18.0259 9.58807 17.182 10.432C16.3381 11.2759 15.1935 11.75 14 11.75C12.8065 11.75 11.6619 11.2759 10.818 10.432C9.97411 9.58807 9.5 8.44347 9.5 7.25C9.5 6.05653 9.97411 4.91193 10.818 4.06802C11.6619 3.22411 12.8065 2.75 14 2.75C15.1935 2.75 16.3381 3.22411 17.182 4.06802C18.0259 4.91193 18.5 6.05653 18.5 7.25ZM27.5 25.25C27.5 27.5 25.25 27.5 25.25 27.5H2.75C2.75 27.5 0.5 27.5 0.5 25.25C0.5 23 2.75 16.25 14 16.25C25.25 16.25 27.5 23 27.5 25.25ZM25.25 25.241C25.2477 24.6875 24.9035 23.0225 23.378 21.497C21.911 20.03 19.1502 18.5 14 18.5C8.84975 18.5 6.089 20.03 4.622 21.497C3.0965 23.0225 2.7545 24.6875 2.75 25.241H25.25Z" fill="#181D1F" fill-opacity="0.75"/>
<path d="M14 14.1C15.8167 14.1 17.5591 13.3783 18.8437 12.0937C20.1283 10.8091 20.85 9.06673 20.85 7.25C20.85 5.43327 20.1283 3.69094 18.8437 2.40632C17.5591 1.12169 15.8167 0.4 14 0.4C12.1833 0.4 10.4409 1.12169 9.15632 2.40632C7.87169 3.69094 7.15 5.43327 7.15 7.25C7.15 9.06673 7.87169 10.8091 9.15632 12.0937C10.4409 13.3783 12.1833 14.1 14 14.1ZM18.4 7.25C18.4 8.41695 17.9364 9.53611 17.1113 10.3613C16.2861 11.1864 15.167 11.65 14 11.65C12.833 11.65 11.7139 11.1864 10.8887 10.3613C10.0636 9.53611 9.6 8.41695 9.6 7.25C9.6 6.08305 10.0636 4.96389 10.8887 4.13873C11.7139 3.31357 12.833 2.85 14 2.85C15.167 2.85 16.2861 3.31357 17.1113 4.13873C17.9364 4.96389 18.4 6.08305 18.4 7.25ZM25.25 27.5C25.25 27.6 25.2501 27.6 25.2501 27.6H25.2503L25.2508 27.6L25.2524 27.6L25.2581 27.5999L25.2786 27.5994C25.2963 27.5988 25.3217 27.5976 25.3538 27.5954C25.418 27.5908 25.509 27.5816 25.618 27.5635C25.8355 27.5272 26.127 27.4546 26.4197 27.3082C26.7128 27.1616 27.009 26.9402 27.2316 26.6063C27.4547 26.2716 27.6 25.83 27.6 25.25C27.6 24.0993 27.0276 21.8236 25.0395 19.8355C23.0484 17.8445 19.6461 16.15 14 16.15C8.35391 16.15 4.95156 17.8445 2.96054 19.8355C0.972446 21.8236 0.4 24.0993 0.4 25.25C0.4 25.83 0.545287 26.2716 0.768357 26.6063C0.991011 26.9402 1.28717 27.1616 1.58028 27.3082C1.873 27.4546 2.16451 27.5272 2.382 27.5635C2.49098 27.5816 2.58201 27.5908 2.6462 27.5954C2.6783 27.5976 2.70374 27.5988 2.7214 27.5994L2.74193 27.5999L2.74758 27.6L2.7492 27.6L2.7497 27.6H2.74988C2.74994 27.6 2.75 27.6 2.75 27.5V27.6H25.25V27.5ZM23.3073 21.5677C24.7281 22.9885 25.1061 24.5278 25.1463 25.141H2.85407C2.89593 24.5271 3.27233 22.9881 4.69271 21.5677C6.13747 20.123 8.87089 18.6 14 18.6C19.1291 18.6 21.8625 20.123 23.3073 21.5677Z" stroke="#181D1F" stroke-opacity="0.75" stroke-width="0.2"/>
</svg>

<svg xmlns="http://www.w3.org/2000/svg" viewBox="0 0 28 28" fill="none"><path fill="#181D1F" fill-opacity=".75" d="M14 14A6.75 6.75 0 1 0 14 .5 6.75 6.75 0 0 0 14 14m4.5-6.75a4.5 4.5 0 1 1-9 0 4.5 4.5 0 0 1 9 0m9 18c0 2.25-2.25 2.25-2.25 2.25H2.75S.5 27.5.5 25.25s2.25-9 13.5-9 13.5 6.75 13.5 9m-2.25-.009c-.002-.553-.346-2.218-1.872-3.744C21.911 20.03 19.15 18.5 14 18.5s-7.911 1.53-9.378 2.997c-1.525 1.526-1.867 3.19-1.872 3.744z"/><path stroke="#181D1F" stroke-opacity=".75" stroke-width=".2" d="M14 14.1A6.85 6.85 0 1 0 14 .4a6.85 6.85 0 0 0 0 13.7Zm4.4-6.85a4.4 4.4 0 1 1-8.8 0 4.4 4.4 0 0 1 8.8 0Zm6.85 20.25v.1h.028l.076-.005a2.865 2.865 0 0 0 1.066-.287c.293-.146.589-.368.812-.702s.368-.776.368-1.356c0-1.15-.572-3.426-2.56-5.414-1.992-1.991-5.394-3.686-11.04-3.686s-9.048 1.695-11.04 3.686C.973 21.824.4 24.099.4 25.25c0 .58.145 1.022.368 1.356s.52.556.812.702a2.9 2.9 0 0 0 1.141.291h.02l.007.001h.001l.001-.1v.1h22.5zm-1.943-5.932c1.421 1.42 1.8 2.96 1.84 3.573H2.853c.042-.614.418-2.153 1.839-3.573C6.137 20.123 8.87 18.6 14 18.6s7.863 1.523 9.307 2.968Z"/></svg>
